X:1
T:[ID 7-119]
T:[ID 7-119]
T:Bezeichnung standardisiert: Menuet [mit Trio] Menuet Con Trio
T:Urheber unbekannt Datum in der hier transkribierten schriftlichen Quelle: 1776 - 1791
C:Urheber unbekannt
C:Datum in der hier transkribierten schriftlichen Quelle: 1776 - 1791
L:1/8
M:3/4
K:F
V:1 treble 
V:1
 F2 f2 f2 | (3faf (3fef c2 | (dB)(cA)(BG) |{B} A4 G2 | (3FAc f2 a2 | gffe e2 | df/d/ c2 =B2 | c6 :: %8
 C2 c2 c2 | c2 (3agf (3edc | B2 B2 B2 | B2 (3gfe (3dcB | A2 f2 f2 | (3fag (3fef c2 | dBAGFE | %15
{E} F6 :|[M:3/4]"^Trio" !fermata!c2 A2 B2 | c4 fc | B2 G2 A2 | B4 gB | AF F2 (3FGA | BG G2 (3GAB | %22
 Ac B2 A2 |{A} G6 :: c=Bdc c2 | c=Bdc c2 | g2 =B2 BA |{A} G6 | fegf f2 | fegf f2 | (3dcB A2 G2 | %31
{G} F6 :| %32

